X: 120510
T: Lady Bowers' Reel
S: "Treoir" (source: Rose Anne Murphy via D.Baker)
Z: B.Black
M: 4/4
L: 1/8
R: reel
K: Ador
dB|:A2 EA (3ABA EA|ABcd edcA|G2 DG G2 DG|\
(3GGG BG DGBG|
A2 EA (3ABA EA|ABcd ecdB|ABcd e2 (3BBB|1\
BAGA BdgB :|2 BAGA BAAe ||
a2 ea abea|(3aaa ed ^cdef|g2 dg Bgdg|gfga bgeg|
a2 ea abea|(3aaa ed ^cdef|gfga bgaf|(3gfe dB BA A2 :|
